img/phone_gray.svg

<svg width="18" height="18" viewBox="0 0 18 18" fill="none" xmlns="http://www.w3.org/2000/svg">
<path d="M16.4289 12.8448V15.1722C16.4298 15.3882 16.3855 15.6021 16.299 15.8C16.2124 15.998 16.0855 16.1757 15.9262 16.3218C15.767 16.4678 15.5791 16.579 15.3744 16.6482C15.1697 16.7175 14.9529 16.7432 14.7377 16.7237C12.3505 16.4643 10.0574 15.6486 8.04266 14.3421C6.16823 13.151 4.57905 11.5618 3.38796 9.68736C2.07686 7.66349 1.26094 5.35925 1.0063 2.9613C0.98691 2.74677 1.01241 2.53056 1.08116 2.32642C1.14992 2.12229 1.26042 1.9347 1.40564 1.77561C1.55087 1.61652 1.72763 1.48942 1.92466 1.40238C2.1217 1.31535 2.3347 1.2703 2.55011 1.27009H4.87746C5.25396 1.26639 5.61895 1.39971 5.90442 1.64521C6.18988 1.89071 6.37634 2.23164 6.42903 2.60444C6.52726 3.34925 6.70944 4.08055 6.97208 4.7844C7.07646 5.06207 7.09905 5.36384 7.03717 5.65396C6.9753 5.94408 6.83156 6.21038 6.62298 6.4213L5.63773 7.40655C6.7421 9.34876 8.35023 10.9569 10.2924 12.0613L11.2777 11.076C11.4886 10.8674 11.7549 10.7237 12.045 10.6618C12.3351 10.5999 12.6369 10.6225 12.9146 10.7269C13.6184 10.9895 14.3497 11.1717 15.0945 11.27C15.4714 11.3231 15.8156 11.5129 16.0616 11.8033C16.3076 12.0937 16.4383 12.4643 16.4289 12.8448Z" fill="#C4C8D4"/>
</svg>

<svg width="18" height="18" fill="none" xmlns="http://www.w3.org/2000/svg"><path d="M16.429 12.845v2.327a1.552 1.552 0 0 1-1.691 1.552 15.354 15.354 0 0 1-6.695-2.382 15.128 15.128 0 0 1-4.655-4.655 15.353 15.353 0 0 1-2.382-6.726 1.552 1.552 0 0 1 1.544-1.69h2.327A1.552 1.552 0 0 1 6.43 2.603c.098.745.28 1.477.543 2.18a1.551 1.551 0 0 1-.349 1.637l-.985.986a12.413 12.413 0 0 0 4.654 4.654l.986-.985a1.551 1.551 0 0 1 1.637-.35 9.966 9.966 0 0 0 2.18.544 1.551 1.551 0 0 1 1.334 1.575Z" fill="#C4C8D4"/></svg>
